symbols/web/sensor_occupied/materialsymbolsoutlined/sensor_occupied_wght100gradN25fill1_24px.svg

<svg xmlns="http://www.w3.org/2000/svg" height="24" width="24"><path d="M12 10.8q-.95 0-1.625-.675T9.7 8.5q0-.975.675-1.65.675-.675 1.625-.675.975 0 1.65.675.675.675.675 1.65 0 .95-.675 1.625T12 10.8Zm-5.3 5v-1.2q0-.45.2-.75t.675-.55q1.025-.55 2.138-.838 1.112-.287 2.287-.287 1.15 0 2.275.275t2.15.85q.45.25.675.562.225.313.225.738v1.2Zm14.55-7.7q-.775-1.825-2.163-3.213Q17.7 3.5 15.9 2.75l.25-.6q2.025.925 3.375 2.262 1.35 1.338 2.35 3.438Zm-18.475 0-.6-.25Q3.1 5.775 4.463 4.425q1.362-1.35 3.412-2.275l.25.6Q6.3 3.525 4.913 4.9 3.525 6.275 2.775 8.1ZM7.85 21.825q-2-.875-3.412-2.3Q3.025 18.1 2.175 16.1l.6-.225q.75 1.825 2.138 3.212 1.387 1.388 3.212 2.138Zm8.275 0-.225-.6q1.825-.75 3.2-2.138 1.375-1.387 2.15-3.212l.6.25q-.925 2.025-2.325 3.425-1.4 1.4-3.4 2.275Z"/></svg>

<svg xmlns="http://www.w3.org/2000/svg" height="24" width="24"><path d="M12 10.8Q11.05 10.8 10.375 10.125Q9.7 9.45 9.7 8.5Q9.7 7.525 10.375 6.85Q11.05 6.175 12 6.175Q12.975 6.175 13.65 6.85Q14.325 7.525 14.325 8.5Q14.325 9.45 13.65 10.125Q12.975 10.8 12 10.8ZM6.7 15.8V14.6Q6.7 14.15 6.9 13.85Q7.1 13.55 7.575 13.3Q8.6 12.75 9.713 12.462Q10.825 12.175 12 12.175Q13.15 12.175 14.275 12.45Q15.4 12.725 16.425 13.3Q16.875 13.55 17.1 13.862Q17.325 14.175 17.325 14.6V15.8ZM21.25 8.1Q20.475 6.275 19.087 4.887Q17.7 3.5 15.9 2.75L16.15 2.15Q18.175 3.075 19.525 4.412Q20.875 5.75 21.875 7.85ZM2.775 8.1 2.175 7.85Q3.1 5.775 4.463 4.425Q5.825 3.075 7.875 2.15L8.125 2.75Q6.3 3.525 4.913 4.9Q3.525 6.275 2.775 8.1ZM7.85 21.825Q5.85 20.95 4.438 19.525Q3.025 18.1 2.175 16.1L2.775 15.875Q3.525 17.7 4.913 19.087Q6.3 20.475 8.125 21.225ZM16.125 21.825 15.9 21.225Q17.725 20.475 19.1 19.087Q20.475 17.7 21.25 15.875L21.85 16.125Q20.925 18.15 19.525 19.55Q18.125 20.95 16.125 21.825Z"/></svg>
